X:1
T:Non c'è pace fra glu ilivi
T:Non c'è pace fra gli ulivi
T:Fisa 1 e 2
T:Musica di Secondo Casadei
T:Trascrizione di Filippo Silvestri
T:Filippo Silvestri
T:Filippo Silvestri
T:Filippo Silvestri
C:Musica di Secondo Casadei
Z:trascrizione di Filippo Silvestri
Z:Filippo Silvestri
%%score 1 2
L:1/8
Q:1/4=180
M:3/4
K:F
V:1 treble nm="Fisarmonica"
V:2 treble nm="Fisarmonica"
V:1
 z6 |: z6 | FA cF Ac | f z f2 g2 | (3fgf e2 f2 | g6 | f6 | e6 | d4 a>_a | g2 g4 | ce gc' ge | %11
 c z e2 f2 | e2 d2 e2 | fA cf Ac | eA ce Ac | dA cd Ac | c4 z2 | dF Bd FB | d^F Ad FA | dG Bd GB | %20
 cE Gc EG | cF Ac FA | cF Ac FA | c2 A2 B2 | c2 B2 A2 | G2 G4 | Bc BA GF | E2 A2 F2 | E2 C2 E2 | %29
 F6 | [Ac]>[Ac] [^G=B]>[GB] [=G_B]>[GB] | [FA]2 z2 [Bc]2 |1 [Acf]2 z2 z2 :|2 [Acf]2 z A GF |: %34
 E2 z A GF | E2 z d cB | A2 z d cB | A3 A BA | (3cdc (3BcB (3ABA | (3GAG (3FGF (3EFE | %40
 (3DED (3CDC (3B,CB, | A,2 z A GF | E2 z A GF | E2 z d cB | A2 z d cB | A3 A BA | %46
 (3cdc (3BcB (3ABA | (3GAG (3FGF (3EFE | DE/D/ CD FA |1 [FAc]2 z A GF :|2 z6 || z6 | FA cF Ac | %53
 f z f2 g2 | (3fgf e2 f2 | g6 | f6 | e6 | d4 a>_a | g2 g4 | ce gc' ge | c z e2 f2 | e2 d2 e2 | %63
 z f' e'f' d'e' | c'd' bc' ab | ga fg ef | de cd Bc | dF Bd FB | d^F Ad FA | dG Bd GB | cE Gc EG | %71
 cF Ac FA | cF Ac FA | c2 A2 B2 | c2 B2 A2 | G2 G4 | Bc BA GF | E2 A2 F2 | E2 C2 E2 | F6 | %80
 [Ac]>[Ac] [^G=B]>[GB] [=G_B]>[GB] | [FA]2 z2 [Bc]2 | [Acf]D _EF AG |:[K:Bb] B4 d2 | B2 G2 F2 | %85
 (3EFE D4- | DD EF AG | B4 d2 | B2 G2 E2 | F6- | F6 | cc cc cc | BA AA AA | GF FF FF | %94
 E/F/E/D/ A4 | AA AA AA | GF FF FF | ED DD DD | G/A/F/D/ B,4 | B6- | B2 c2 d2 | (3ABA F4- | F6 | %103
 F2 _A2 B2 | _A2 G2 F2 | E6- | E6 | c6- | cA Bc BA | BA F4- | F2 B2 F2 | A2 G2 F2 | E2 F2 C2 | %113
 GA/G/ FG dB |1 FD EF AG :|2[K:F] [DF]2 z4 || z6 | FA cF Ac | f z f2 g2 | (3fgf e2 f2 | g6 | f6 | %122
 e6 | d4 a>_a | g2 g4 | ce gc' ge | c z e2 f2 | e2 d2 e2 | z f' e'f' d'e' | c'd' bc' ab | %130
 ga fg ef | de cd Bc | dF Bd FB | d^F Ad FA | dG Bd GB | cE Gc EG | cF Ac FA | cF Ac FA | %138
 c2 A2 B2 | c2 B2 A2 | G2 G4 | Bc BA GF | E2 A2 F2 | E2 C2 E2 | F6 | %145
 [Ac]>[Ac] [^G=B]>[GB] [=G_B]>[GB] | [FA]C FA Bc | [Acf]2 z4 |] %148
V:2
 z4 [Bd]2 |: [Ac]2 [Ac]4- | [Ac]6- | [Ac]2 [FA]2 [GB]2 | [FA]2 [EG]2 [FA]2 | [GB]2 [GB-]4 | %6
 [FB-]6 | [EB-]6 | [DB]4 [Ac]2 | [GB]2 [GB]4- | [GB]6- | [GB]2 G2 A2 | G2 F2 G2 | [FA-]6 | [EA-]6 | %15
 [DA-]6 | [CA]4 [Ac]2 | [Bd]2 [Bd]4- | [Bd]6- | [Bd]2 [GB]2 [FA]2 | [EG]2 [GB]2 [Bd]2 | %21
 [Ac]2 [Ac]4- | [Ac]6- | [Ac]2 C2 D2 | E2 D2 C2 | [GB]2 [GB]4- | [GB]6- | [GB]2 c2 A2 | G2 F2 G2 | %29
 F6 | [Ac]>[Ac] [^G=B]>[GB] [=G_B]>[GB] | [FA]2 z2 [Bc]2 |1 [Acf]2 z2 [Bd]2 :|2 [Acf]2 z F ED |: %34
 C2 z F ED | C2 z B AG | F2 z B AG | F3 c dc | (3efe (3ded (3cdc | (3BcB (3ABA (3GAG | %40
 (3FGF (3EFE (3DED | C2 z F ED | C2 z F ED | C2 z B AG | F2 z B AG | F3 c dc | (3efe (3ded (3cdc | %47
 (3BcB (3ABA (3GAG | FG/F/ EF Ac |1 [Acf]2 z F ED :|2 [Acf]2 z2 [Bd]2 || [Ac]2 [Ac]4- | [Ac]6- | %53
 [Ac]2 [FA]2 [GB]2 | [FA]2 [EG]2 [FA]2 | [GB]2 [GB-]4 | [FB-]6 | [EB-]6 | [DB]4 [Ac]2 | %59
 [GB]2 [GB]4- | [GB]6- | [GB]2 G2 A2 | G2 F2 G2 | [FA-]6 | [EA-]6 | [DA-]6 | [CA]4 [Ac]2 | %67
 [Bd]2 [Bd]4- | [Bd]6- | [Bd]2 [GB]2 [FA]2 | [EG]2 [GB]2 [Bd]2 | [Ac]2 [Ac]4- | [Ac]6- | %73
 [Ac]2 C2 D2 | E2 D2 C2 | [GB]2 [GB]4- | [GB]6- | [GB]2 c2 A2 | G2 F2 G2 | F6 | %80
 [Ac]>[Ac] [^G=B]>[GB] [=G_B]>[GB] | [FA]2 z2 [Bc]2 | [Acf]F GA cB |:[K:Bb] d4 f2 | d2 B2 A2 | %85
 (3GAG F4- | FF GA cB | d4 f2 | d2 B2 G2 | A6- | A6 | ee ee ee | dc cc cc | BA AA AA | %94
 G/A/G/F/ c4 | cc cc cc | BA AA AA | GF FF FF | G/A/F/D/ B,4 | d6- | d2 e2 f2 | (3cdc B4- | B6 | %103
 B2 c2 d2 | c2 B2 _A2 | G6- | G6 | e6- | ec de dc | dc B4- | B2 d2 B2 | c2 B2 A2 | G2 A2 F2 | %113
 Bc/B/ AB fd |1 BF GA cB :|2[K:F] B2 z2 [Bd]2 || [Ac]2 [Ac]4- | [Ac]6- | [Ac]2 [FA]2 [GB]2 | %119
 [FA]2 [EG]2 [FA]2 | [GB]2 [GB-]4 | [FB-]6 | [EB-]6 | [DB]4 [Ac]2 | [GB]2 [GB]4- | [GB]6- | %126
 [GB]2 G2 A2 | G2 F2 G2 | [FA-]6 | [EA-]6 | [DA-]6 | [CA]4 [Ac]2 | [Bd]2 [Bd]4- | [Bd]6- | %134
 [Bd]2 [GB]2 [FA]2 | [EG]2 [GB]2 [Bd]2 | [Ac]2 [Ac]4- | [Ac]6- | [Ac]2 C2 D2 | E2 D2 C2 | %140
 [GB]2 [GB]4- | [GB]6- | [GB]2 c2 A2 | G2 F2 G2 | F6 | [Ac]>[Ac] [^G=B]>[GB] [=G_B]>[GB] | %146
 [FA]2 z2 [Bc]2 | [Acf]2 z4 |] %148

